X:4
T:Royal Review. WCa.04
M:6/8
L:1/8
Q:3/8=120
S:Wm. Calvert MS, 1812, Leyburn, Yorks.
R:.Slip Jig
O:England
A:North Yorkshire
N:A strain sounds ungainly at first, but grows..CGP…
Z:vmp.Chris Partington, May 2003
K:D
“_Barred 6/8 in MS, in Gmaj”a2f faf b2g|\
g2e efd cBA|a2f faf b2g| faf gecd3:|!
|:FGA AFA BGB|g2e efd cBA|\
FGA AFA B2g| faf gec”^cr”d3:|

